X: 113
T:Mont Vida. JC.113
T:Monferina,aka. JC.113
T:Italian Monferina,aka. JC.113
M:6/8
L:1/8
Q:120
C:Italian Monferina,aka.
S:John Clare,Poet,Helpston. (1793-1864)
R:Jig
O:England
A:Northamptonshire
N:MR. no time sig in MS Bars 6&8, a dot after each crotchet omitted.
Z:vmp.P. Headford
K:G
D|GBB BcA|AGGG2d|dEF FGA|AGGG2D|!
GBc BcA|AGGG2B|ABc FGA|AGGG2|!
|g|fga agc|Bcdd2g|fga bgc|Bcdd2g|!
ece gfe|dcd gfe|ded cBA|AGG"qu"G2|]
